!!!OTL: Holder Schatz, du brichst den Schwur der Treue (1-42), S. 108
!!!id: K1090
**kern
*clefG2
*k[f#c#]
*D:
{8f#
8a
=1
4.d
8a
8a
8a
8b
8a
=2
8g
8f#
2e}
=3
{8e
8d
=4
4.c#
8a
8a
16a
16a
8g
8g
=5
2f#}
8r
=6
{8d
8d
8b
=7
4.b
8b
8dd
8dd
8cc#
8b
=8
8b
8a
4a}
8r
=9
{8a
8a
8dd
=10
4.cc#
8b
8a
8a
8g
8g
=11
2f#}
8r
=12
{8d
8d
8b
=13
4.b
8b
8dd
8dd
8cc#
8b
=14
8b
8a
4a}
8r
=15
{8a
8a
8dd
=16
4.cc#
8b
8a
8a
8g
8g
=17
2f#}
4r
==
*-
!!!minrhy: 16
!!!meters: 4/4 ]  ZZ[6
!!!cut: Holder Schatz, du brichst den Schwur der Treue (1-42), S. 108
!!!reg: Luxemburg
!!!trd: KINTZELE, Guillaume: An der Ucht, Bd. 1, Luxemburg 1926
!!!rhy1: X_X_  X__.X_X_X_X_X_  X_X_X___
!!!rhy2: X_X_  X__.X_X_XXX_X_  X___0_
!!!key: K1090  16  D 4/4 ]  ZZ[6
!!!mod: HEPTATONIK IONISCH]  AMBITUS[9b
!!!kad: 235353
!!!akz: 1542_-753_6+16_753_6+16_753_
!!!fot: 'a__b__c__d__c__d__
!!!for: 'a__b__av_aw_av_aw_
!!!fok: 'Sd_/__^a_^d_^a_^d_
!! PHRAS[AUFTAKTIG]
!!!fkt: Untreue
!!!bem: in der Quelle mit einer 2. Stimme versehen
!! KINTZELE
!! PR[32] 2K[0] 2G[11] 3K[15] 3G[3] 4A[2] 4Ü[0] 5A[0] 6K[0] 6G[0]
!! 7K[0] 7G[0] 8A[0] MEHR[0] SI[30] ABS[66] SR[11] SP[20]
!! ST[16] 2k[11] 2g[21] 3k[5] 3g[2] 4d[0] 4ü[0] 5d[0] 6k[0] 6g[0]
!! 7k[0] 7g[0] 8d[0] mehr[0] si[38] dm[-8] sr[32] sp[6]
!! 1F[3] 2F[71] 3F[10] 4F[0] LF[0] 2P[0] 3P[16] 4P[0] TRI[0] DF[4] AB[68]
!! TF[0] U3K[0] U3[0] U4[0] U4Ü[0] U5[1] U6K[0] U6[0] U7K[0] U7[0]
!! N1[6] N2K[0] N2[3] N3K[0] N3[19] N4[21] N4Ü[0] N5[42] N6K[0] N6[7]
!!!n7k: 0] N7[0] O1[0] O2K[0] O2[0] O3K[0] O3[0] HÖ[0
